dist/svg/static/list-large.svg

<?xml version="1.0" encoding="UTF-8" standalone="no"?>
<svg width="48px" height="48px" viewBox="0 0 48 48" version="1.1" xmlns="http://www.w3.org/2000/svg" xmlns:xlink="http://www.w3.org/1999/xlink">
    <!-- Generator: sketchtool 46.2 (44496) - http://www.bohemiancoding.com/sketch -->
    <title>list-large</title>
    <desc>Created with sketchtool.</desc>
    <defs></defs>
    <g id="icons-published" stroke="none" stroke-width="1" fill="none" fill-rule="evenodd">
        <g id="briefing" transform="translate(-2592.000000, -922.000000)"></g>
        <g id="list-large" stroke="#000000">
            <path d="M16,30.5 L21,30.5 M12,30.5 L14,30.5 M16,24.5 L28,24.5 M12,24.5 L14,24.5 M16,18.5 L34,18.5 M12,18.5 L14,18.5" id="Shape"></path>
        </g>
    </g>
</svg>

<svg xmlns="http://www.w3.org/2000/svg" width="48" height="48" viewBox="0 0 48 48"><g fill="none" stroke="currentColor" stroke-miterlimit="10"><path d="M16 30.5h5m-9 0h2m2-6h12m-16 0h2M16 18.5h18m-22 0h2"/></g></svg>
